X: 759
T: Haishu kaihua suifenfen
L: 1/8
M: 2/4
K: G
A2E G [I:setbarnb 1]| 
A2A2 | 
d2d2 | 
d ec2 | 
A2E G | 
A2c2 | 
D2E C | 
D4 | 
A2E G | 
A2A2 | 
d2d2 | 
d ec2 | 
B AG2 | 
A> A A3/ c/ | 
A G E C | 
D4 |]

@@@ Tune index: 9633
